assets/img/font-card.svg

<svg width="160" height="107" viewBox="0 0 160 107" fill="none" xmlns="http://www.w3.org/2000/svg">
<path d="M132.644 93H124.668V87.1512C120.415 91.8303 114.566 94.2761 107.654 94.2761C98.9334 94.2761 89.6816 88.4273 89.6816 77.2614C89.6816 65.7764 98.9334 60.3529 107.654 60.3529C114.672 60.3529 120.521 62.5861 124.668 67.3715V58.1197C124.668 51.2075 119.138 47.2728 111.695 47.2728C105.527 47.2728 100.529 49.506 95.9558 54.3977L92.2339 48.8679C97.7637 43.1254 104.357 40.3605 112.758 40.3605C123.605 40.3605 132.644 45.2523 132.644 57.6944V93ZM110.525 88.5336C116.161 88.5336 121.584 86.4068 124.668 82.1531V72.4759C121.584 68.2223 116.161 66.0954 110.525 66.0954C103.081 66.0954 97.87 70.7745 97.87 77.3677C97.87 83.8546 103.081 88.5336 110.525 88.5336Z" fill="#1B1B1B"/>
<path d="M83.5982 93H73.4957L67.2215 77.2614H31.9158L25.6416 93H15.5391L44.0388 22.0696H54.9921L83.5982 93ZM64.5629 69.392L49.5686 31.2151L34.468 69.392H64.5629Z" fill="#1B1B1B"/>
<path d="M4.77288 101.372H0V106.579H4.77288V101.372Z" fill="#457AA5"/>
<path d="M82.0872 101.372H77.3145V106.579H82.0872V101.372Z" fill="#457AA5"/>
<path d="M159.403 101.372H154.63V106.579H159.403V101.372Z" fill="#457AA5"/>
<path d="M157.756 104.786H1.64453V2.54752H157.756V104.786ZM3.12908 103.166H156.271V4.16702H3.12908V103.166Z" fill="#457AA5"/>
<path d="M4.77288 0.753235H0V5.95997H4.77288V0.753235Z" fill="#457AA5"/>
<path d="M82.0872 0.753235H77.3145V5.95997H82.0872V0.753235Z" fill="#457AA5"/>
<path d="M159.403 0.753235H154.63V5.95997H159.403V0.753235Z" fill="#457AA5"/>
<path d="M4.77288 51.0635H0V56.2702H4.77288V51.0635Z" fill="#457AA5"/>
<path d="M159.403 51.0635H154.63V56.2703H159.403V51.0635Z" fill="#457AA5"/>
</svg>

<svg xmlns="http://www.w3.org/2000/svg" width="160" height="107" fill="none" viewBox="0 0 160 107"><path fill="#1b1b1b" d="M132.644 93h-7.976v-5.849c-4.253 4.68-10.102 7.125-17.014 7.125-8.72 0-17.972-5.849-17.972-17.015 0-11.485 9.251-16.908 17.972-16.908 7.018 0 12.867 2.233 17.014 7.018V58.12c0-6.912-5.53-10.847-12.973-10.847-6.168 0-11.166 2.233-15.74 7.125l-3.721-5.53c5.53-5.743 12.123-8.507 20.524-8.507 10.847 0 19.886 4.891 19.886 17.333zm-22.119-4.466c5.636 0 11.059-2.127 14.143-6.38v-9.678c-3.084-4.254-8.507-6.38-14.143-6.38-7.444 0-12.655 4.679-12.655 11.272 0 6.487 5.211 11.166 12.655 11.166M83.598 93H73.496l-6.274-15.739H31.916L25.642 93H15.539l28.5-70.93h10.953zM64.563 69.392 49.569 31.215 34.468 69.392z"/><path fill="#457aa5" d="M4.773 101.372H0v5.207h4.773zM82.087 101.372h-4.773v5.207h4.773zM159.403 101.372h-4.773v5.207h4.773z"/><path fill="#457aa5" d="M157.756 104.786H1.645V2.548h156.111zm-154.627-1.62h153.142V4.167H3.129z"/><path fill="#457aa5" d="M4.773.753H0V5.96h4.773zM82.087.753h-4.773V5.96h4.773zM159.403.753h-4.773V5.96h4.773zM4.773 51.064H0v5.206h4.773zM159.403 51.064h-4.773v5.206h4.773z"/></svg>
